svg/fluentui-system-icons/ic_fluent_ratio_one_to_one_24_filled.svg

<svg width="24" height="24" viewBox="0 0 24 24" fill="none" xmlns="http://www.w3.org/2000/svg">
<path d="M5.25 4C3.45507 4 2 5.45507 2 7.25V16.75C2 18.5449 3.45507 20 5.25 20H18.75C20.5449 20 22 18.5449 22 16.75V7.25C22 5.45507 20.5449 4 18.75 4H5.25ZM8.50008 8.75V15.25C8.50008 15.6642 8.16429 16 7.75008 16C7.33587 16 7.00008 15.6642 7.00008 15.25V10.1514L6.6661 10.374C6.32146 10.6038 5.85581 10.5107 5.62604 10.166C5.39628 9.82138 5.48941 9.35573 5.83405 9.12596L7.33405 8.12596C7.5642 7.97254 7.86011 7.95823 8.10397 8.08875C8.34784 8.21926 8.50008 8.4734 8.50008 8.75ZM17.5 8.75005V15.25C17.5 15.6643 17.1642 16 16.75 16C16.3358 16 16 15.6643 16 15.25V10.1514L15.666 10.3741C15.3214 10.6039 14.8557 10.5107 14.626 10.1661C14.3962 9.82143 14.4893 9.35578 14.834 9.12601L16.334 8.12601C16.5641 7.97258 16.86 7.95828 17.1039 8.08879C17.3478 8.21931 17.5 8.47345 17.5 8.75005ZM13.0001 14C13.0001 14.5523 12.5524 15 12.0001 15C11.4478 15 11.0001 14.5523 11.0001 14C11.0001 13.4477 11.4478 13 12.0001 13C12.5524 13 13.0001 13.4477 13.0001 14ZM12.0001 11C11.4478 11 11.0001 10.5523 11.0001 10C11.0001 9.44772 11.4478 9 12.0001 9C12.5524 9 13.0001 9.44772 13.0001 10C13.0001 10.5523 12.5524 11 12.0001 11Z" fill="#212121"/>
</svg>

<svg xmlns="http://www.w3.org/2000/svg" width="24" height="24"><path d="M5.25 4A3.25 3.25 0 0 0 2 7.25v9.5A3.25 3.25 0 0 0 5.25 20h13.5A3.25 3.25 0 0 0 22 16.75v-9.5A3.25 3.25 0 0 0 18.75 4H5.25ZM8.5 8.75v6.5a.75.75 0 0 1-1.5 0v-5.099l-.334.223a.75.75 0 1 1-.832-1.248l1.5-1A.75.75 0 0 1 8.5 8.75Zm9 0v6.5a.75.75 0 1 1-1.5 0v-5.099l-.334.223a.75.75 0 1 1-.832-1.248l1.5-1a.75.75 0 0 1 1.166.624ZM13 14a1 1 0 1 1-2 0 1 1 0 0 1 2 0Zm-1-3a1 1 0 1 1 0-2 1 1 0 0 1 0 2Z"/></svg>
